public/images/rss.svg

<svg width="16" height="16" viewBox="0 0 16 16" xmlns="http://www.w3.org/2000/svg"><title>Shape</title><path d="M.3 0v2.367c7.087 0 12.83 5.746 12.83 12.832h2.37C15.5 6.804 8.695 0 .3 0zm0 4.737v2.37c4.47 0 8.094 3.622 8.094 8.093h2.368c0-5.778-4.684-10.463-10.46-10.463zm2.27 5.922C1.316 10.66.3 11.676.3 12.93c0 1.253 1.016 2.27 2.27 2.27s2.27-1.016 2.27-2.27-1.016-2.27-2.27-2.27z" fill="#8EC617" fill-rule="evenodd"/></svg>

<?xml version="1.0" encoding="UTF-8" standalone="no"?>
<svg width="25px" height="25px" viewBox="0 0 25 25" version="1.1" xmlns="http://www.w3.org/2000/svg" xmlns:xlink="http://www.w3.org/1999/xlink" xmlns:sketch="http://www.bohemiancoding.com/sketch/ns">
    <!-- Generator: Sketch 3.4.2 (15855) - http://www.bohemiancoding.com/sketch -->
    <title>rss</title>
    <desc>Created with Sketch.</desc>
    <defs></defs>
    <g id="Page-1" stroke="none" stroke-width="1" fill="none" fill-rule="evenodd" sketch:type="MSPage">
        <g id="rss" sketch:type="MSArtboardGroup" fill="#8EC617">
            <g sketch:type="MSLayerGroup" transform="translate(5.000000, 5.000000)" id="Shape">
                <g sketch:type="MSShapeGroup">
                    <path d="M0.3,0 L0.3,2.367 C7.387,2.367 13.13,8.113 13.13,15.199 L15.5,15.199 C15.5,6.804 8.695,0 0.3,0 L0.3,0 Z M0.3,4.737 L0.3,7.107 C4.77,7.107 8.394,10.729 8.394,15.2 L10.762,15.2 C10.762,9.422 6.078,4.737 0.302,4.737 L0.3,4.737 Z M2.57,10.659 C1.316,10.66 0.3,11.676 0.3,12.93 C0.3,14.183 1.316,15.2 2.57,15.2 C3.824,15.2 4.84,14.184 4.84,12.93 C4.84,11.676 3.824,10.66 2.57,10.66 L2.57,10.659 Z"></path>
                </g>
            </g>
        </g>
    </g>
</svg>
